svgs/regular/fence.svg

<svg xmlns="http://www.w3.org/2000/svg" viewBox="0 0 512 512"><!--! Font Awesome Pro 6.2.0 by @fontawesome - https://fontawesome.com License - https://fontawesome.com/license (Commercial License) Copyright 2022 Fonticons, Inc. --><path d="M64 32C71.75 32 79.02 35.74 83.53 42.05L123.5 98.05C126.4 102.1 128 106.1 128 112V160H192V112C192 106.1 193.6 102.1 196.5 98.05L236.5 42.05C240.1 35.74 248.2 32 256 32C263.8 32 271 35.74 275.5 42.05L315.5 98.05C318.4 102.1 320 106.1 320 112V160H384V112C384 106.1 385.6 102.1 388.5 98.05L428.5 42.05C432.1 35.74 440.2 32 448 32C455.8 32 463 35.74 467.5 42.05L507.5 98.05C510.4 102.1 512 106.1 512 112V448C512 465.7 497.7 480 480 480H416C398.3 480 384 465.7 384 448V400H320V448C320 465.7 305.7 480 288 480H224C206.3 480 192 465.7 192 448V400H128V448C128 465.7 113.7 480 96 480H32C14.33 480 0 465.7 0 448V112C0 106.1 1.563 102.1 4.47 98.05L44.47 42.05C48.98 35.74 56.25 32 64 32zM320 352H384V208H320V352zM128 208V352H192V208H128zM48 119.7V432H80V119.7L64 97.29L48 119.7zM240 119.7V432H272V119.7L256 97.29L240 119.7zM464 432V119.7L448 97.29L432 119.7V432H464z"/></svg>

<svg xmlns="http://www.w3.org/2000/svg" viewBox="0 0 512 512"><!--! Font Awesome Pro 6.3.0 by @fontawesome - https://fontawesome.com License - https://fontawesome.com/license (Commercial License) Copyright 2023 Fonticons, Inc. --><path d="M64 32c7.8 0 15 3.7 19.5 10.1l40 56c2.9 4.1 4.5 8.9 4.5 13.9v48h64V112c0-5 1.6-9.9 4.5-13.9l40-56C241 35.7 248.2 32 256 32s15 3.7 19.5 10.1l40 56c2.9 4.1 4.5 8.9 4.5 13.9v48h64V112c0-5 1.6-9.9 4.5-13.9l40-56C433 35.7 440.2 32 448 32s15 3.7 19.5 10.1l40 56c2.9 4.1 4.5 8.9 4.5 13.9V448c0 17.7-14.3 32-32 32H416c-17.7 0-32-14.3-32-32V400H320v48c0 17.7-14.3 32-32 32H224c-17.7 0-32-14.3-32-32V400H128v48c0 17.7-14.3 32-32 32H32c-17.7 0-32-14.3-32-32V112c0-5 1.6-9.9 4.5-13.9l40-56C49 35.7 56.2 32 64 32zM320 352h64V208H320V352zM192 208H128V352h64V208zM48 119.7V432H80V119.7L64 97.3 48 119.7zm192 0V432h32V119.7L256 97.3l-16 22.4zM432 432h32V119.7L448 97.3l-16 22.4V432z"/></svg>
